X: 767
T:Ootpik Waltz
C:Frankie Rodgers
R:waltz
P:ABA
M:3/4
L:1/8
Q:1/4=120
K:G
P:A
"G"(3DEF|:"G"GB3 (3BAG|"D"AF3 E>D|"Em"EG3 G>A|"G"G4B>d|!
"C"e4 e>f|"G"ed3 B>A|"Bm"Bd3 d>e|d4 B>d|!
"C"e4e>f|"G"ed3 B>A|"Bm"Bd3 B>A|"Em"GE4-E|"C"C2E2G2|!
"D"F3 ED2|1"G"EG4-G-|G4 (3DEF:|2"G"EG4-G-|G2B2d2|!
P:B
|:"Em"eB3B2|B4 e2|"Bm"dB3B2|B4B2|"Am"A4A>B|!
A2G2ED|1"Em"E6-|E2 (B2d2) :|2"Em"(E6|"D"F4)||

